fonts/xesada/uni004f.svg

<?xml version="1.0" encoding="UTF-8" standalone="no"?>
<svg width="500" height="850" version="1.1" id="svg1" sodipodi:docname="uni004F.svg" inkscape:version="1.4.2 (ebf0e940, 2025-05-08)" xmlns:inkscape="http://www.inkscape.org/namespaces/inkscape" xmlns:sodipodi="http://sodipodi.sourceforge.net/DTD/sodipodi-0.dtd" xmlns="http://www.w3.org/2000/svg" xmlns:svg="http://www.w3.org/2000/svg">
    <defs id="defs1" />
    <sodipodi:namedview id="namedview1" pagecolor="#ffffff" bordercolor="#000000" borderopacity="0.25" inkscape:showpageshadow="2" inkscape:pageopacity="0.0" inkscape:pagecheckerboard="0" inkscape:deskcolor="#d1d1d1" inkscape:zoom="0.31652174" inkscape:cx="259.06593" inkscape:cy="426.51099" inkscape:window-width="1080" inkscape:window-height="675" inkscape:window-x="0" inkscape:window-y="25" inkscape:window-maximized="0" inkscape:current-layer="svg1" />
    <path id="path1" d="M -250 600 L -271.65039 612.5 L -271.65039 637.5 L -250 650 L -120.0957 725 L -250 800 L -401.55469 712.5 L -423.20508 700 L -444.85547 712.5 L -444.85547 737.5 L -250 850 L -76.794922 750 L -55.144531 737.5 L -55.144531 712.5 L -76.794922 700 L -228.34961 612.5 L -250 600 z " />
</svg>

<svg width="500" height="850" xmlns="http://www.w3.org/2000/svg">
    <path d="m-250 600-21.65 12.5v25L-250 650l129.904 75L-250 800l-151.555-87.5-21.65-12.5-21.65 12.5v25L-250 850l173.205-100 21.65-12.5v-25l-21.65-12.5-151.555-87.5z"/>
</svg>
